components/2.0/icon/icons/icon-youre-a-wizard-harry-22px.svg

<?xml version="1.0" encoding="UTF-8" standalone="no"?>
<svg width="22px" height="22px" viewBox="0 0 22 22" version="1.1" xmlns="http://www.w3.org/2000/svg" xmlns:xlink="http://www.w3.org/1999/xlink" xmlns:sketch="http://www.bohemiancoding.com/sketch/ns">
    <!-- Generator: Sketch 3.4.4 (17249) - http://www.bohemiancoding.com/sketch -->
    <title>icon-youre-a-wizard-harry-22px</title>
    <desc>Created with Sketch.</desc>
    <defs></defs>
    <g id="22px" stroke="none" stroke-width="1" fill="none" fill-rule="evenodd" sketch:type="MSPage">
        <g id="icon-youre-a-wizard-harry-22px" sketch:type="MSArtboardGroup" fill="#4D4D4D">
            <path d="M18,16 L17,16 L16,7 L20,3 L19,2 L10,5 L5,16 L4,16 C2.9,16 2,16.9 2,18 C2,19.1 2.9,20 4,20 L18,20 C19.1,20 20,19.1 20,18 C20,16.9 19.1,16 18,16 L18,16 Z M14,13 L10,19 L11.6,13 L9,13 L9,12 L14,6 L11.5,12 L14,12 L14,13 L14,13 Z" id="Shape" sketch:type="MSShapeGroup"></path>
        </g>
    </g>
</svg>

<svg width="22" height="22" xmlns="http://www.w3.org/2000/svg"><path d="M18 16h-1l-1-9 4-4-1-1-9 3-5 11H4c-1 0-2 1-2 2s1 2 2 2h14c1 0 2-1 2-2s-1-2-2-2zm-4-3l-4 6 1.6-6H9v-1l5-6-2.5 6H14v1z" fill="#4D4D4D" fill-rule="evenodd"/></svg>
